dist/assets/images/ico/ico_size.svg

<svg width="20" height="20" viewBox="0 0 20 20" fill="none" xmlns="http://www.w3.org/2000/svg">
<rect x="0.25" y="0.250061" width="19.5" height="19.5" rx="0.583333" fill="#D6CBB6"/>
<rect x="0.25" y="0.250061" width="19.5" height="19.5" rx="0.583333" stroke="#534731" stroke-width="0.5"/>
<path d="M3.97086 9.14888H3.33594V16.7679H3.97086V9.14888Z" fill="#212121"/>
<path d="M16.6693 9.14888H16.0344V16.7679H16.6693V9.14888Z" fill="#212121"/>
<path d="M15.6746 12.5394H4.66927V13.1743H15.6746V12.5394Z" fill="#212121"/>
<path d="M5.93065 14.8632L3.9243 12.8568L5.93065 10.8505L6.37932 11.2991L4.82165 12.8568L6.37932 14.4145L5.93065 14.8632Z" fill="#212121"/>
<path d="M14.0407 14.8632L13.592 14.4145L15.1497 12.8568L13.592 11.2991L14.0407 10.8505L16.047 12.8568L14.0407 14.8632Z" fill="#212121"/>
<path d="M11.7063 6.52055L13.0312 7.84965L10.7709 10.0549C10.5889 10.237 10.3434 10.3258 10.1021 10.3258C9.86085 10.3258 9.61534 10.237 9.43333 10.0549C9.06508 9.69092 9.06508 9.09833 9.43333 8.73854L11.7021 6.52055M11.7106 5.83907L11.3677 6.17346L9.09894 8.39145C8.82804 8.65812 8.67566 9.01367 8.67566 9.39462C8.67566 9.77558 8.82381 10.1311 9.09471 10.3978C9.36561 10.6645 9.72116 10.8084 10.1021 10.8084C10.4831 10.8084 10.8429 10.6645 11.1095 10.3978L13.7212 7.84965L13.3741 7.50256L12.0492 6.17346L11.7106 5.83484V5.83907Z" fill="#212121"/>
<path d="M13.9667 4.66235C14.2079 4.66235 14.4534 4.75124 14.6354 4.93325C15.0037 5.29727 15.0037 5.88986 14.6354 6.24965L13.2217 7.65494L11.8968 6.32584L13.2979 4.93325C13.4799 4.75124 13.7254 4.66235 13.9667 4.66235ZM13.9667 4.17981C13.5857 4.17981 13.2259 4.32372 12.9593 4.59039L11.554 5.98722L11.2111 6.33007L11.554 6.67293L12.8788 8.00203L13.2175 8.34066L13.5603 8.00203L14.9741 6.59674C15.245 6.33007 15.3931 5.97452 15.3931 5.5978C15.3931 5.22108 15.245 4.86129 14.9741 4.59462C14.7032 4.32796 14.3476 4.18404 13.9667 4.18404V4.17981Z" fill="#212121"/>
<path d="M6.50423 8.88245C6.50423 8.88245 6.67355 10.6179 8.31587 11.2571C8.82804 11.4687 10.0598 11.4645 11.0037 10.6475C11.8418 9.70362 11.1984 8.76394 11.1984 8.76394C11.1984 8.76394 10.864 8.31526 10.5254 8.21367C10.1995 8.11632 9.49683 7.91314 8.86614 8.62002C7.93069 9.39039 7.3 9.13219 6.5 8.88245H6.50423Z" fill="#212121"/>
</svg>

<svg width="20" height="20" fill="none" xmlns="http://www.w3.org/2000/svg"><rect x=".25" y=".25" width="19.5" height="19.5" rx=".583" fill="#D6CBB6"/><rect x=".25" y=".25" width="19.5" height="19.5" rx=".583" stroke="#534731" stroke-width=".5"/><path d="M3.97 9.149h-.634v7.619h.635v-7.62zm12.7 0h-.636v7.619h.635v-7.62zm-.995 3.391H4.669v.634h11.006v-.635z" fill="#212121"/><path d="M5.93 14.863l-2.006-2.006 2.007-2.006.448.448-1.557 1.558 1.557 1.558-.448.448zm8.11 0l-.448-.448 1.558-1.558-1.558-1.558.449-.448 2.006 2.006-2.006 2.006zM11.706 6.52l1.325 1.33-2.26 2.205a.944.944 0 01-.669.27.944.944 0 01-.669-.27.922.922 0 010-1.316l2.27-2.218m.008-.682l-.343.334-2.27 2.218a1.4 1.4 0 00-.422 1.004 1.417 1.417 0 001.426 1.413c.381 0 .74-.143 1.008-.41l2.61-2.548-.347-.347-1.325-1.33-.338-.338v.004z" fill="#212121"/><path d="M13.967 4.662c.24 0 .486.09.668.271a.922.922 0 010 1.317l-1.413 1.405-1.325-1.33 1.4-1.392a.945.945 0 01.67-.27zm0-.482c-.381 0-.741.144-1.008.41l-1.405 1.397-.343.343.343.343 1.325 1.329.338.339.343-.339 1.414-1.405a1.402 1.402 0 000-2.002 1.422 1.422 0 00-1.007-.411V4.18zM6.504 8.882s.17 1.736 1.812 2.375c.512.212 1.744.207 2.688-.61.838-.943.194-1.883.194-1.883s-.334-.449-.673-.55c-.325-.098-1.028-.3-1.659.406-.935.77-1.566.512-2.366.262h.004z" fill="#212121"/></svg>
